T: Traditional, The
M: 6/8
L: 1/8
K: Gmaj
dBG GFG | Bcd =fdB | cA=F FEF | C=FA c2 B/c/ |dBG GFG | BB/c/d fga | gfd cAF | GAG G2 :|dgg gfg | bag agf | cde =fef | ag=f ag^f |d2 g gfg | Bcd fga | g>fd cAF | GAG G2 :|
